X: 268
T:Gaude virgo
N: Derived from Jos2402-Gaude_virgo.krn
C: Josquin des Prez
%%abc-version 2.0
%%abcx-abcm2ps-target-version 5.9.1 (29 Sep 2008)
%%abc-creator hum2abc beta
%%abcx-conversion-date 2019/02/12 16:15:52
%%abc-edited-by Jesse Rodin
%%abc-edited-by Jesse Rodin; Victoria Chang 2011/05/16
%%abcx-initial-encoding-date 2011/05/16/
%%humdrum-veritas 3645578700
%%humdrum-veritas-data 4256056503
%%linebreak <none>
%%barnumbers 0
L: 1/4
M: 2/1
Q: 1/2=120
%%staves [1 2 3 4]
V: 1 clef=treble
V: 2 clef=treble
V: 3 clef=treble-8
V: 4 clef=bass
K: C
[V:1] D8 | 
[V:2] z8 | 
[V:3] z8 | 
[V:4] z8 | 
[V:1] D4D4 | 
[V:2] z8 | 
[V:3] z8 | 
[V:4] z8 | 
[V:1] F3GA2_B2 | 
[V:2] D8 | 
[V:3] z8 | 
[V:4] z8 | 
[V:1] A2_B4AG | 
[V:2] D4D4 | 
[V:3] z8 | 
[V:4] z8 | 
[V:1] A4D4 | 
[V:2] F3GA2_B2 | 
[V:3] z8 | 
[V:4] z8 | 
[V:1] D4D4 | 
[V:2] A2_B4AG | 
[V:3] z8 | 
[V:4] z8 | 
[V:1] F3GA2_B2 | 
[V:2] A4D4 | 
[V:3] z8 | 
[V:4] z8 | 
[V:1] A2_B4AG | 
[V:2] D4D4 | 
[V:3] z8 | 
[V:4] z8 | 
[V:1] A4z2d2 | 
[V:2] F3GA2_B2 | 
[V:3] z8 | 
[V:4] z8 | 
[V:1] c2d4c_B | 
[V:2] A2_B4AG | 
[V:3] z8 | 
[V:4] z8 | 
[V:1] c4z4 | 
[V:2] A8 | 
[V:3] z8 | 
[V:4] z8 | 
[V:1] A4A4 | 
[V:2] z4A4 | 
[V:3] z8 | 
[V:4] z8 | 
[V:1] c3defe2- | 
[V:2] A4c4- | 
[V:3] z8 | 
[V:4] z8 | 
[V:1] ecdef2e2- | 
[V:2] c2B2A2G2 | 
[V:3] z8 | 
[V:4] z8 | 
[V:1] ecdef2e2- | 
[V:2] F3ED2C2 | 
[V:3] z8 | 
[V:4] z8 | 
[V:1] edd4^c2 | 
[V:2] D4E4 | 
[V:3] z8 | 
[V:4] z8 | 
[V:1] d8- | 
[V:2] D8- | 
[V:3] z4D4 | 
[V:4] z8 | 
[V:1] d8 | 
[V:2] D8 | 
[V:3] F4G4 | 
[V:4] z8 | 
[V:1] z8 | 
[V:2] z8 | 
[V:3] A2D2d3c | 
[V:4] z4D,4 | 
[V:1] z8 | 
[V:2] z8 | 
[V:3] A2c2B4 | 
[V:4] F,4G,4 | 
[V:1] z8 | 
[V:2] z8 | 
[V:3] A4z2D2 | 
[V:4] A,2D,2D3C | 
[V:1] z8 | 
[V:2] z8 | 
[V:3] F4G4 | 
[V:4] A,2C2B,4 | 
[V:1] z8 | 
[V:2] z8 | 
[V:3] A2D2d3c | 
[V:4] A,4z2D,2 | 
[V:1] z8 | 
[V:2] z8 | 
[V:3] A2c2B4 | 
[V:4] F,4G,4 | 
[V:1] z8 | 
[V:2] z8 | 
[V:3] A2F2G2DE | 
[V:4] A,2D,2D3C | 
[V:1] z8 | 
[V:2] z8 | 
[V:3] FGA4^G2 | 
[V:4] A,2C2B,4 | 
[V:1] z8 | 
[V:2] z8 | 
[V:3] A4c4 | 
[V:4] A,4z2F,2- | 
[V:1] z8 | 
[V:2] z8 | 
[V:3] d4e4 | 
[V:4] F,2G,4A,2- | 
[V:1] z8 | 
[V:2] z8 | 
[V:3] ABcdedf2 | 
[V:4] A,G,A,B,G,2A,2- | 
[V:1] z8 | 
[V:2] z8 | 
[V:3] ABcdedf2- | 
[V:4] A,G,A,B,G,2A,2 | 
[V:1] z8 | 
[V:2] z8 | 
[V:3] fed4^c2 | 
[V:4] F,2G,2E,4 | 
[V:1] z4d4 | 
[V:2] z8 | 
[V:3] d8- | 
[V:4] D,8- | 
[V:1] f4f4 | 
[V:2] z4A4 | 
[V:3] d8 | 
[V:4] D,8 | 
[V:1] e4c4 | 
[V:2] c4c4 | 
[V:3] c6BA | 
[V:4] z4A,4 | 
[V:1] d4d4 | 
[V:2] _B4G4 | 
[V:3] G8 | 
[V:4] _B,4B,4 | 
[V:1] c4A4 | 
[V:2] A4A4 | 
[V:3] z2c2d2f2- | 
[V:4] A,4F,4 | 
[V:1] _B4B4 | 
[V:2] G8 | 
[V:3] f2ede2d2- | 
[V:4] G,4G,4 | 
[V:1] A4F4 | 
[V:2] z4A4 | 
[V:3] d2cBA2d2 | 
[V:4] F,8 | 
[V:1] G4G4 | 
[V:2] _B4B4 | 
[V:3] G8 | 
[V:4] z8 | 
[V:1] F2c2d2f2- | 
[V:2] A4F4 | 
[V:3] d2A2_B2d2- | 
[V:4] z4D,4 | 
[V:1] f2ede4 | 
[V:2] G4G4 | 
[V:3] d2cBc2G2 | 
[V:4] E,4E,4 | 
[V:1] f2d2f2e2- | 
[V:2] (3:2:5F4D2C2E2F2 | 
[V:3] A4A4 | 
[V:4] D,4A,4 | 
[V:1] e2d4c_B | 
[V:2] (3:2:5G4E2D2F2G2 | 
[V:3] G4z2d2 | 
[V:4] _B,4B,4 | 
[V:1] c2A2c2_B2- | 
[V:2] (3A4E4G4 | 
[V:3] e4e4 | 
[V:4] A,4z2E,2 | 
[V:1] B2A2c3_B | 
[V:2] (3F4C4D4 | 
[V:3] d4z2A2 | 
[V:4] F,4F,4 | 
[V:1] G2A4^G2 | 
[V:2] E8 | 
[V:3] B4B4 | 
[V:4] E,8 | 
[V:1] A8 | 
[V:2] C6B,A, | 
[V:3] A8 | 
[V:4] z2A,4G,F, | 
[V:1] z2A4GF | 
[V:2] B,2A,2z2A2 | 
[V:3] d8 | 
[V:4] G,2F,2D,4 | 
[V:1] G2F2D2A2 | 
[V:2] _B2A4GF | 
[V:3] z8 | 
[V:4] z8 | 
[V:1] _B2A4GF | 
[V:2] G2F2D2A2 | 
[V:3] z8 | 
[V:4] z8 | 
[V:1] G2F2D2d2 | 
[V:2] _B2A4GF | 
[V:3] z8 | 
[V:4] z8 | 
[V:1] edf3ed2- | 
[V:2] G2F2D3F | 
[V:3] z8 | 
[V:4] z8 | 
[V:1] d2^c2d4 | 
[V:2] E4D4 | 
[V:3] z2A4B2- | 
[V:4] z4D,4 | 
[V:1] z8 | 
[V:2] z8 | 
[V:3] B2c4d2- | 
[V:4] E,4F,4 | 
[V:1] z8 | 
[V:2] z8 | 
[V:3] d2e4f2- | 
[V:4] G,4A,4 | 
[V:1] z8 | 
[V:2] z8 | 
[V:3] fefde4 | 
[V:4] B,4C4 | 
[V:1] z2A4=B2- | 
[V:2] z4D4 | 
[V:3] d4z4 | 
[V:4] D8 | 
[V:1] B2c4d2- | 
[V:2] E4F4 | 
[V:3] z8 | 
[V:4] z8 | 
[V:1] d2e4f2- | 
[V:2] G4A4 | 
[V:3] z8 | 
[V:4] z8 | 
[V:1] fefde2A2 | 
[V:2] B4c4 | 
[V:3] z8 | 
[V:4] z8 | 
[V:1] =B2c2d2e2- | 
[V:2] d2A2B2c2- | 
[V:3] z8 | 
[V:4] z8 | 
[V:1] e2c2=B4 | 
[V:2] cBA4^G2 | 
[V:3] z4z2e2- | 
[V:4] z8 | 
[V:1] A4z4 | 
[V:2] A4D4 | 
[V:3] e2f4d2- | 
[V:4] A,4B,4 | 
[V:1] z4e4 | 
[V:2] B4c4 | 
[V:3] d2e4c2- | 
[V:4] G,4A,4 | 
[V:1] f4d4 | 
[V:2] A4B4 | 
[V:3] c2d4B2- | 
[V:4] F,4G,4 | 
[V:1] e4c4 | 
[V:2] G4A4 | 
[V:3] B2c3AA2- | 
[V:4] E,4A,4 | 
[V:1] d4d4 | 
[V:2] A4z4 | 
[V:3] A2f4d2- | 
[V:4] D,4D4 | 
[V:1] z4e4 | 
[V:2] B4c4 | 
[V:3] d2e4c2- | 
[V:4] G,4A,4 | 
[V:1] f4d4 | 
[V:2] A4B4 | 
[V:3] c2d4B2- | 
[V:4] F,4G,4 | 
[V:1] e4c3=B | 
[V:2] G4A4 | 
[V:3] B2c3Af2- | 
[V:4] E,4F,3G, | 
[V:1] c2d4^c2 | 
[V:2] A8 | 
[V:3] fefde4 | 
[V:4] A,2D,2A,4 | 
[V:1] d4z4 | 
[V:2] [M:2/1](3:2:1F12 | 
[V:3] d8 | 
[V:4] D,8- | 
[V:1] (3:2:2A8_B4 | 
[V:2] (3:2:2z4D8 | 
[V:3] z8 | 
[V:4] D,8 | 
[V:1] (3:2:2G4A8 | 
[V:2] (3E4C4D4- | 
[V:3] z8 | 
[V:4] z8 | 
[V:1] (3_B4c4d4- | 
[V:2] (3D4E4F4 | 
[V:3] z8 | 
[V:4] z8 | 
[V:1] (3d4e4z4 | 
[V:2] (3G6F2A4 | 
[V:3] z8 | 
[V:4] z8 | 
[V:1] (3:2:2A8_B4 | 
[V:2] (3:2:2z4D8 | 
[V:3] z8 | 
[V:4] z8 | 
[V:1] (3:2:2G4A8 | 
[V:2] (3E4C4D4- | 
[V:3] z8 | 
[V:4] z8 | 
[V:1] (3_B4c4d4- | 
[V:2] (3D4E4F4 | 
[V:3] z8 | 
[V:4] z8 | 
[V:1] (3d4e4z4 | 
[V:2] (3G6F2A4 | 
[V:3] z8 | 
[V:4] z8 | 
[V:1] (3:2:2e8f4 | 
[V:2] (3:2:2z4A8 | 
[V:3] [M:2/1](3:2:2c8d4 | 
[V:4] [M:2/1](3:2:2A,8F,4 | 
[V:1] (3d4e6d2 | 
[V:2] (3B4G4A4 | 
[V:3] (3:2:2B4c8 | 
[V:4] (3G,4E,4F,4 | 
[V:1] (3:2:2d8^c4 | 
[V:2] (3:2:2A4A8 | 
[V:3] (3:2:2d4e8 | 
[V:4] (3:2:2D,4A,8 | 
[V:1] [M:2/1]d6c2 | 
[V:2] [M:2/1]F4z4 | 
[V:3] [M:2/1]d4z4 | 
[V:4] [M:2/1]D,8 | 
[V:1] A4c4 | 
[V:2] F4E4 | 
[V:3] d4c2e2- | 
[V:4] z4A,4 | 
[V:1] =B4d4 | 
[V:2] G4D4 | 
[V:3] e2B4d2- | 
[V:4] E,2G,4D,2- | 
[V:1] A4c4 | 
[V:2] F4E3F | 
[V:3] d2A3Bc2 | 
[V:4] D,2D,2A,4 | 
[V:1] =B3cd4 | 
[V:2] G4A4 | 
[V:3] d2e2f4 | 
[V:4] G,3F,D,4 | 
[V:1] e4z4 | 
[V:2] z4F4 | 
[V:3] e2c2d3c | 
[V:4] A,4z2D,2 | 
[V:1] c4=B4 | 
[V:2] E4G4 | 
[V:3] A2e4B2- | 
[V:4] A,3G,E,2G,2- | 
[V:1] d4A4 | 
[V:2] D4F4 | 
[V:3] B2d4A2- | 
[V:4] G,2D,4D,2 | 
[V:1] c4=B3c | 
[V:2] E3FG4 | 
[V:3] ABc2d2e2 | 
[V:4] A,4G,3F, | 
[V:1] d4e4 | 
[V:2] A8 | 
[V:3] f4e4 | 
[V:4] D,4A,4 | 
[V:1] (3:2:2e8f4 | 
[V:2] [M:2/1](3:2:2z4A8 | 
[V:3] [M:2/1](3:2:2c8d4 | 
[V:4] [M:2/1](3:2:2A,8F,4 | 
[V:1] (3d4e6d2 | 
[V:2] (3B4G4A4 | 
[V:3] (3:2:2B4c8 | 
[V:4] (3G,4E,4F,4 | 
[V:1] (3:2:2d8^c4 | 
[V:2] (3:2:2A4A8 | 
[V:3] (3:2:2d4e8 | 
[V:4] (3:2:2D,4A,8 | 
[V:1] d8 | 
[V:2] [M:2/1]F4z2D2 | 
[V:3] [M:2/1]d8- | 
[V:4] [M:2/1]D,8- | 
[V:1] z2D2F3G | 
[V:2] F3GA2_B2 | 
[V:3] d4z2d2 | 
[V:4] D,8 | 
[V:1] A2_B2A4 | 
[V:2] A2D2F3G | 
[V:3] f3ga2d2 | 
[V:4] z4z2D,2 | 
[V:1] z4z2D2 | 
[V:2] A_BA4G2 | 
[V:3] z2f4ed | 
[V:4] F,3G,A,2_B,2 | 
[V:1] F3GA_BA2- | 
[V:2] A8 | 
[V:3] c2d2A2f2- | 
[V:4] A,2D,2F,3G, | 
[V:1] A2G2A2f2 | 
[V:2] z2D2F3G | 
[V:3] f2edc2d2 | 
[V:4] A,2_B,2A,2D,2 | 
[V:1] f2f4ed | 
[V:2] A_BA4G2 | 
[V:3] A3Bc2d2 | 
[V:4] F,3G,A,2_B,2 | 
[V:1] !fermata!^c8- | 
[V:2] !fermata!A8- | 
[V:3] e2f4ed | 
[V:4] !fermata!A,8- | 
[V:1] c8 | 
[V:2] A8 | 
[V:3] !fermata!e8 | 
[V:4] A,8 | 
[V:1] d8 |]  
[V:2] A8 |]  
[V:3] d8 |]  
[V:4] D,8 |]  



